src/icons/execution.svg

<svg viewBox="0 0 24 24" fill="none" xmlns="http://www.w3.org/2000/svg">
<rect opacity="0.01" x="4" y="4" width="16" height="16" fill="black"/>
<g opacity="0.8">
<path fill-rule="evenodd" clip-rule="evenodd" d="M12.0005 5.91061C14.427 4.70842 16.7251 4.66462 18.0309 5.97035C19.3602 7.29948 19.2666 9.62172 18.0882 12.0002C19.2666 14.3782 19.3602 16.7005 18.0309 18.0296C16.7022 19.3582 14.3807 19.2656 12.0034 18.0883C9.57542 19.292 7.27634 19.3353 5.97047 18.0296C4.77015 16.8294 4.73182 14.8183 5.60206 12.6887C5.08065 12.1867 4.99539 11.3827 5.39993 10.7826C4.73331 8.82574 4.88466 7.05556 5.96997 5.97035C7.27584 4.66462 9.57442 4.70842 12.0005 5.91061ZM9.18461 14.8158C12.1518 17.7832 15.827 18.8256 17.327 17.3257C18.1982 16.4545 18.2062 14.8486 17.4833 13.0755C17.0136 13.813 16.4759 14.505 15.8772 15.1423C16.2021 15.6139 16.1631 16.2463 15.7829 16.6745C15.4027 17.1027 14.7793 17.2162 14.2725 16.9495C13.7658 16.6829 13.5064 16.1048 13.6441 15.549C13.7817 14.9932 14.281 14.603 14.8537 14.6037C14.892 14.6037 14.929 14.6087 14.966 14.6138L14.9661 14.6138C14.9785 14.6155 14.991 14.6172 15.0035 14.6187C15.8155 13.7744 16.4762 12.8813 16.9665 11.9997C16.5847 11.3219 16.1398 10.6815 15.6378 10.0872C15.5457 10.1091 15.4506 10.1235 15.3515 10.1235C14.6641 10.1235 14.1069 9.56632 14.1069 8.879C14.1069 8.19168 14.6641 7.6345 15.3515 7.6345C16.0389 7.6345 16.5961 8.19168 16.5961 8.879C16.5961 9.10052 16.5334 9.30562 16.4318 9.48582C16.8132 9.94201 17.1645 10.4226 17.4833 10.9245C18.2067 9.1508 18.1982 7.54539 17.327 6.67424C16.3567 5.70403 14.4145 5.76924 12.2549 6.89477C12.1775 6.93279 12.0914 6.94946 12.0054 6.94305C11.9169 6.9513 11.8278 6.93494 11.748 6.89576C9.58787 5.76924 7.64475 5.70403 6.67444 6.67424C5.94658 7.40203 5.80767 8.67938 6.25425 10.1798C6.37952 10.1443 6.5089 10.1253 6.63909 10.1235C6.77022 10.1251 6.90052 10.1445 7.02642 10.1813C7.46669 9.5777 7.95287 9.00902 8.48064 8.48026C8.60639 8.35453 8.78968 8.30542 8.96146 8.35144C9.13324 8.39747 9.26741 8.53163 9.31344 8.70339C9.35947 8.87515 9.31036 9.05842 9.18461 9.18415C8.69965 9.66955 8.25229 10.1911 7.84638 10.7443C8.02461 10.9902 8.13264 11.2899 8.13264 11.6169C8.13264 12.4417 7.46396 13.1103 6.63909 13.1103C6.61078 13.1103 6.58366 13.1065 6.55648 13.1028L6.55643 13.1027L6.55638 13.1027C6.54057 13.1005 6.52475 13.0983 6.50865 13.0969C5.79473 14.8616 5.80668 16.4575 6.67444 17.3252C7.52029 18.171 9.10495 18.2297 10.9291 17.4845C10.0428 16.922 9.22168 16.2631 8.48064 15.5197C8.35489 15.3939 8.30578 15.2107 8.35181 15.0389C8.39784 14.8671 8.53201 14.733 8.70379 14.687C8.87557 14.6409 9.05886 14.69 9.18461 14.8158ZM12.1155 10.1235C11.0156 10.1235 10.1241 11.015 10.1241 12.1147C10.1241 13.2144 11.0156 14.1059 12.1155 14.1059C13.2153 14.1059 14.1069 13.2144 14.1069 12.1147C14.1069 11.015 13.2153 10.1235 12.1155 10.1235ZM11.2531 12.6122C11.4309 12.9203 11.7596 13.1102 12.1155 13.1103C12.6655 13.1105 13.1115 12.6647 13.1117 12.1147C13.1118 11.5647 12.666 11.1187 12.116 11.1186C11.7601 11.1185 11.4313 11.3082 11.2533 11.6163C11.0753 11.9244 11.0752 12.304 11.2531 12.6122Z" fill="black"/>
</g>
</svg>

<svg viewBox="0 0 24 24" fill="currentColor" xmlns="http://www.w3.org/2000/svg"><path opacity=".01" fill="#000" d="M4 4h16v16H4z"/><path fill-rule="evenodd" clip-rule="evenodd" d="M12 5.91c2.427-1.202 4.725-1.245 6.03.06 1.33 1.33 1.237 3.652.058 6.03 1.179 2.378 1.272 4.7-.057 6.03-1.329 1.328-3.65 1.236-6.028.058-2.428 1.204-4.727 1.247-6.033-.058-1.2-1.2-1.238-3.212-.368-5.341a1.49 1.49 0 0 1-.202-1.906c-.667-1.957-.515-3.727.57-4.813C7.276 4.665 9.574 4.708 12 5.91zm-2.815 8.906c2.967 2.967 6.642 4.01 8.142 2.51.871-.872.88-2.477.156-4.25-.47.737-1.007 1.429-1.606 2.066a1.244 1.244 0 1 1-1.023-.538c.038 0 .075.005.112.01l.038.005a12.797 12.797 0 0 0 1.963-2.62 12.379 12.379 0 0 0-1.33-1.912 1.232 1.232 0 0 1-.286.037 1.245 1.245 0 1 1 1.245-1.245c0 .222-.063.427-.164.607.381.456.733.937 1.051 1.438.724-1.773.715-3.379-.156-4.25-.97-.97-2.913-.905-5.072.22a.484.484 0 0 1-.25.05.482.482 0 0 1-.257-.048c-2.16-1.127-4.103-1.192-5.074-.222-.727.728-.866 2.005-.42 3.506.126-.036.255-.055.385-.056.131.001.262.02.387.057a14.52 14.52 0 0 1 1.455-1.7.498.498 0 0 1 .704.703 13.542 13.542 0 0 0-1.339 1.56c.179.246.287.546.287.873 0 .825-.669 1.493-1.494 1.493-.028 0-.055-.003-.083-.007a.93.93 0 0 0-.047-.006c-.714 1.765-.702 3.36.165 4.228.846.846 2.431.905 4.255.16a14.203 14.203 0 0 1-2.448-1.965.498.498 0 1 1 .704-.704zm2.93-4.693a1.991 1.991 0 1 0 0 3.983 1.991 1.991 0 0 0 0-3.982zm-.862 2.49a.996.996 0 1 0 1.725-.997.996.996 0 0 0-1.725.996z" fill="#000" opacity=".8"/></svg>
